**harm	**harte	**kern	**silbe	**kern	**silbe	**rhyme	**timestamp	**phrase	**leadinstrument
*M4/4	*M4/4	*ICvox	*	*ICvox	*	*	*	*	*
*	*	*VRlead	*	*VRresponse	*	*	*	*	*
*	*	*Hstimme	*	*Nstimme	*	*	*	*	*
*c:	*c:	*c:	*	*c:	*	*	*c:	*c:	*c:
*	*	*M4/4	*	*M4/4	*	*	*	*	*
*	*	*clefG2	*	*clefF4	*	*	*	*	*
1r;	N	r;	.	r;	.	.	0	.	r
=1	=1	=1	=1	=1	=1	=1	=1	=1	=1
*>Letter>A	*>Letter>A	*>Letter>A	*>Letter>A	*>Letter>A	*>Letter>A	*>Letter>A	*>Letter>A	*>Letter>A	*>Letter>A
*>Label>Intro	*>Label>Intro	*>Label>Intro	*>Label>Intro	*>Label>Intro	*>Label>Intro	*>Label>Intro	*>Label>Intro	*>Label>Intro	*>Label>Intro
4i7	C:min7	1r	.	1r	.	.	0.488	newline	synth
4-VII	B-:maj	.	.	.	.	.	0.989	.	synth
2-VI7	A-:maj7	.	.	.	.	.	1.491	.	synth
=2	=2	=2	=2	=2	=2	=2	=2	=2	=2
4v7	G:min7	1r	.	1r	.	.	2.495	.	synth
2.iv7	F:min7	.	.	.	.	.	2.996	.	synth
=3	=3	=3	=3	=3	=3	=3	=3	=3	=3
4i7	C:min7	1r	.	1r	.	.	4.502	.	synth
4-VII	B-:maj	.	.	.	.	.	5.004	.	synth
2-VI7	A-:maj7	.	.	.	.	.	5.505	.	synth
=4	=4	=4	=4	=4	=4	=4	=4	=4	=4
4v7	G:min7	1r	.	1r	.	.	6.509	.	synth
2iv7	F:min7	.	.	.	.	.	7.011	.	synth
4V7	G:7	.	.	.	.	.	8.014	.	synth
=5	=5	=5	=5	=5	=5	=5	=5	=5	=5
4i7	C:min7	1r	.	1r	.	.	8.516	newline	synth
4-VII	B-:maj	.	.	.	.	.	9.013	.	synth
2-VI7	A-:maj7	.	.	.	.	.	9.51	.	synth
=6	=6	=6	=6	=6	=6	=6	=6	=6	=6
4v7	G:min7	1r	.	1r	.	.	10.503	.	synth
2.iv7	F:min7	.	.	.	.	.	11	.	synth
=7	=7	=7	=7	=7	=7	=7	=7	=7	=7
4-VI7	A-:maj7	1r	.	1r	.	.	12.49	.	synth
4v7	G:min7	.	.	.	.	.	12.987	.	synth
2iv7	F:min7	.	.	.	.	.	13.484	.	synth
=8	=8	=8	=8	=8	=8	=8	=8	=8	=8
4IVe	F:maj/2	1r	.	1r	.	.	14.478	.	synth
2.iv7	F:min7	.	.	.	.	.	14.974	.	synth
=9	=9	=9	=9	=9	=9	=9	=9	=9	=9
1iv7	F:min7	1r	.	1r	.	.	16.465	.	synth
=10	=10	=10	=10	=10	=10	=10	=10	=10	=10
*>Letter>A	*>Letter>A	*>Letter>A	*>Letter>A	*>Letter>A	*>Letter>A	*>Letter>A	*>Letter>A	*>Letter>A	*>Letter>A
*>Label>Chorus	*>Label>Chorus	*>Label>Chorus	*>Label>Chorus	*>Label>Chorus	*>Label>Chorus	*>Label>Chorus	*>Label>Chorus	*>Label>Chorus	*>Label>Chorus
4i7	C:min7	8g	La-	1r	.	(A	18.452	newline	voice
.	.	8g	-dy,	.	.	a)	.	.	.
4-VII	B-:maj	4r	.	.	.	.	18.948	.	voice
2-VI7	A-:maj7	2r	.	.	.	.	19.444	.	voice
=11	=11	=11	=11	=11	=11	=11	=11	=11	=11
4v7	G:min7	4r	.	1r	.	.	20.436	.	voice
2.iv7	F:min7	8r	.	.	.	.	20.932	.	voice
.	.	8c	you	.	.	.	.	.	.
.	.	4e-	bring	.	.	.	.	.	.
.	.	8c	me	.	.	.	.	.	.
.	.	8g	up	.	.	.	.	.	.
=12	=12	=12	=12	=12	=12	=12	=12	=12	=12
4i7	C:min7	8r	.	1r	.	.	22.42	.	voice
.	.	8B-	when	.	.	.	.	.	.
4-VII	B-:maj	8c	I	.	.	.	22.916	.	voice
.	.	8B-	am	.	.	(b	.	.	.
2-VI7	A-:maj7	4c	down.	.	.	B)	23.412	.	voice
.	.	4r	.	.	.	.	.	.	.
=13	=13	=13	=13	=13	=13	=13	=13	=13	=13
4v7	G:min7	2r	.	1r	.	.	24.404	.	voice
2iv7	F:min7	.	.	.	.	.	24.9	.	voice
.	.	4r	.	.	.	.	.	.	.
4V7b	G:7/3	8r	.	.	.	.	25.892	.	voice
.	.	8c	And	.	.	.	.	.	.
=14	=14	=14	=14	=14	=14	=14	=14	=14	=14
4i7	C:min7	8g	may-	1r	.	(A	26.388	newline	voice
.	.	8g	-be,	.	.	a)	.	.	.
4-VII	B-:maj	16f	_	.	.	.	26.884	.	voice
.	.	16e-	_	.	.	.	.	.	.
.	.	8r	.	.	.	.	.	.	.
2-VI7	A-:maj7	2r	.	.	.	.	27.379	.	voice
=15	=15	=15	=15	=15	=15	=15	=15	=15	=15
4v7	G:min7	4r	.	1r	.	.	28.371	.	voice
2.iv7	F:min7	8r	.	.	.	.	28.866	.	voice
.	.	8c	you're	.	.	.	.	.	.
.	.	4e-	gon-	.	.	.	.	.	.
.	.	8c	-na	.	.	.	.	.	.
.	.	[8g	change	.	.	.	.	.	.
=16	=16	=16	=16	=16	=16	=16	=16	=16	=16
4-VI7	A-:maj7	8g]	_	1r	.	.	30.353	.	voice
.	.	8B-	my	.	.	.	.	.	.
4v7	G:min7	8c	life	.	.	.	30.849	.	voice
.	.	8B-	a-	.	.	(b	.	.	.
2iv7	F:min7	4c	-round.	.	.	B)	31.345	.	voice
.	.	4r	.	.	.	.	.	.	.
=17	=17	=17	=17	=17	=17	=17	=17	=17	=17
4IVe	F:maj/2	1r	.	1r	.	.	32.336	.	voice
2.iv7	F:min7	.	.	.	.	.	32.832	.	voice
=18	=18	=18	=18	=18	=18	=18	=18	=18	=18
1iv7	F:min7	1r	.	1r	.	.	34.319	.	voice
=19	=19	=19	=19	=19	=19	=19	=19	=19	=19
*>Letter>B	*>Letter>B	*>Letter>B	*>Letter>B	*>Letter>B	*>Letter>B	*>Letter>B	*>Letter>B	*>Letter>B	*>Letter>B
*>Label>Verse	*>Label>Verse	*>Label>Verse	*>Label>Verse	*>Label>Verse	*>Label>Verse	*>Label>Verse	*>Label>Verse	*>Label>Verse	*>Label>Verse
4i7	C:min7	4r	.	1r	.	.	36.302	newline	voice
2.-VII	B-:maj	4g	You	.	.	.	36.799	.	voice
.	.	4e-	came	.	.	.	.	.	.
.	.	8c	to	.	.	.	.	.	.
.	.	[8c	me	.	.	C	.	.	.
=20	=20	=20	=20	=20	=20	=20	=20	=20	=20
4iv7	F:min7	8c]	_	1r	.	.	38.289	.	voice
.	.	8B-	when	.	.	.	.	.	.
2.v7	G:min7	8c	I	.	.	.	38.786	.	voice
.	.	8B-	was	.	.	.	.	.	.
.	.	4c	lone-	.	.	(C	.	.	.
.	.	8e-	-ly,	.	.	c)	.	.	.
.	.	8r	.	.	.	.	.	.	.
=21	=21	=21	=21	=21	=21	=21	=21	=21	=21
4i7	C:min7	4r	.	1r	.	.	40.277	.	voice
2.-VII	B-:maj	4g	and	.	.	.	40.774	.	voice
.	.	4e-	no-	.	.	.	.	.	.
.	.	8c	-one	.	.	.	.	.	.
.	.	8B-q	_	.	.	.	.	.	.
.	.	8c	cared	.	.	D	.	.	.
=22	=22	=22	=22	=22	=22	=22	=22	=22	=22
.	.	8B-q	_	.	.	.	.	.	.
4iv7	F:min7	8c	_	1r	.	.	42.264	.	voice
.	.	[8B-	_	.	.	.	.	.	.
2.v7	G:min7	4B-]	_	.	.	.	42.761	.	voice
.	.	2r	.	.	.	.	.	.	.
=23	=23	=23	=23	=23	=23	=23	=23	=23	=23
4i7	C:min7	4r	.	1r	.	.	44.252	newline	voice
2.-VII	B-:maj	4g	You	.	.	.	44.749	.	voice
.	.	4e-	made	.	.	.	.	.	.
.	.	8c	me	.	.	.	.	.	.
.	.	[8c	see	.	.	.	.	.	.
=24	=24	=24	=24	=24	=24	=24	=24	=24	=24
4iv7	F:min7	8c]	_	1r	.	.	46.24	.	voice
.	.	8B-	that	.	.	.	.	.	.
2.v7	G:min7	8c	I	.	.	.	46.737	.	voice
.	.	8B-	was	.	.	.	.	.	.
.	.	4c	on-	.	.	(C	.	.	.
.	.	8e-	-ly	.	.	c)	.	.	.
.	.	8r	.	.	.	.	.	.	.
=25	=25	=25	=25	=25	=25	=25	=25	=25	=25
4i7	C:min7	4r	.	1r	.	.	48.228	.	voice
2.-VII	B-:maj	4g	just	.	.	.	48.725	.	voice
.	.	4e-	run-	.	.	.	.	.	.
.	.	8c	-nin'	.	.	.	.	.	.
.	.	8e-q	_	.	.	.	.	.	.
.	.	8f	scared!	.	.	D	.	.	.
=26	=26	=26	=26	=26	=26	=26	=26	=26	=26
4iv7	F:min7	8.e-	_	1r	.	.	50.217	.	voice
.	.	16f	_	.	.	.	.	.	.
4v7	G:min7	8g	_	.	.	.	50.714	.	voice
.	.	8r	.	.	.	.	.	.	.
4-III	E-:maj	2r	.	.	.	.	51.211	.	voice
4IV	F:maj	.	.	.	.	.	51.708	.	voice
=27	=27	=27	=27	=27	=27	=27	=27	=27	=27
4i7	C:min7	4r	.	1r	.	.	52.205	newline	voice
2.-VII	B-:maj	4g 4b-	I	.	.	.	52.701	.	voice
.	.	4g 4b-	saw	.	.	.	.	.	.
.	.	8g 8b-	your	.	.	.	.	.	.
.	.	8g 8b-	face	.	.	.	.	.	.
=28	=28	=28	=28	=28	=28	=28	=28	=28	=28
4iv7	F:min7	8f 8a-	_	1r	.	.	54.189	.	voice
.	.	8e- 8g	and	.	.	.	.	.	.
2.v7	G:min7	8e- 8g	some-	.	.	.	54.685	.	voice
.	.	8c 8f	-thin'	.	.	.	.	.	.
.	.	4f 4a-	told	.	.	(C	.	.	.
.	.	8e- 8g	me	.	.	c)	.	.	.
.	.	8c 8e-	_	.	.	.	.	.	.
=29	=29	=29	=29	=29	=29	=29	=29	=29	=29
4i7	C:min7	4r	.	1r	.	.	56.172	.	voice
2.-VII	B-:maj	4g	you	.	.	.	56.668	.	voice
.	.	4e-	were	.	.	.	.	.	.
.	.	8c	the	.	.	.	.	.	.
.	.	8e-q	_	.	.	.	.	.	.
.	.	8f	one!	.	.	E	.	.	.
=30	=30	=30	=30	=30	=30	=30	=30	=30	=30
4iv7	F:min7	4e-	_	1r	.	.	58.156	.	voice
2.v7	G:min7	16f	_	.	.	.	58.652	.	voice
.	.	8g	_	.	.	.	.	.	.
.	.	16r	.	.	.	.	.	.	.
.	.	2r	.	.	.	.	.	.	.
=31	=31	=31	=31	=31	=31	=31	=31	=31	=31
4i7	C:min7	4r	.	1r	.	.	60.14	newline	voice
2.-VII	B-:maj	4g	You	.	.	.	60.636	.	voice
.	.	4g	smiled	.	.	.	.	.	.
.	.	8g	at	.	.	.	.	.	.
.	.	8g	me	.	.	F	.	.	.
=32	=32	=32	=32	=32	=32	=32	=32	=32	=32
4iv7	F:min7	8f	_	1r	.	.	62.124	.	voice
.	.	8e-	and	.	.	.	.	.	.
2.v7	G:min7	8e-	now	.	.	.	62.62	.	voice
.	.	8c	_	.	.	.	.	.	.
.	.	4e-	I	.	.	.	.	.	.
.	.	4f	see	.	.	F	.	.	.
=33	=33	=33	=33	=33	=33	=33	=33	=33	=33
4-VI7	A-:maj7	4r	.	1r	.	.	64.108	.	voice
4v7	G:min7	4g	my	.	.	.	64.604	.	voice
2iv7	F:min7	4e-	life's	.	.	.	65.1	.	voice
.	.	8c	be-	.	.	.	.	.	.
.	.	8c	-gun	.	.	E	.	.	.
=34	=34	=34	=34	=34	=34	=34	=34	=34	=34
4IVe	F:maj/2	8B-	_	1r	.	.	66.092	.	voice
.	.	8G	_	.	.	.	.	.	.
2.iv7	F:min7	16B-	_	.	.	.	66.588	.	voice
.	.	[8.c	_	.	.	.	.	.	.
.	.	2c_	_	.	.	.	.	.	.
=35	=35	=35	=35	=35	=35	=35	=35	=35	=35
1iv7	F:min7	2c]	_	1r	.	.	68.076	.	voice
.	.	2r	.	.	.	.	.	.	.
=36	=36	=36	=36	=36	=36	=36	=36	=36	=36
*>Letter>C	*>Letter>C	*>Letter>C	*>Letter>C	*>Letter>C	*>Letter>C	*>Letter>C	*>Letter>C	*>Letter>C	*>Letter>C
*>Label>Interlude	*>Label>Interlude	*>Label>Interlude	*>Label>Interlude	*>Label>Interlude	*>Label>Interlude	*>Label>Interlude	*>Label>Interlude	*>Label>Interlude	*>Label>Interlude
4-VI7	A-:maj7	1r	.	1r	.	.	70.06	newline	synth
4v7	G:min7	.	.	.	.	.	70.562	.	synth
2iv7	F:min7	.	.	.	.	.	71.064	.	synth
=37	=37	=37	=37	=37	=37	=37	=37	=37	=37
4IVe	F:maj/2	1r	.	1r	.	.	72.068	.	synth
2.iv7	F:min7	.	.	.	.	.	72.57	.	synth
=38	=38	=38	=38	=38	=38	=38	=38	=38	=38
1iv7	F:min7	1r	.	1r	.	.	74.076	.	synth
=39	=39	=39	=39	=39	=39	=39	=39	=39	=39
*>Letter>A	*>Letter>A	*>Letter>A	*>Letter>A	*>Letter>A	*>Letter>A	*>Letter>A	*>Letter>A	*>Letter>A	*>Letter>A
*>Label>Chorus	*>Label>Chorus	*>Label>Chorus	*>Label>Chorus	*>Label>Chorus	*>Label>Chorus	*>Label>Chorus	*>Label>Chorus	*>Label>Chorus	*>Label>Chorus
4i7	C:min7	8g	La-	2r	.	(A	76.084	newline	voice
.	.	8g	-dy,	.	.	a)	.	.	.
4-VII	B-:maj	4r	.	.	.	.	76.574	.	voice
2-VI7	A-:maj7	2r	.	8r	.	.	77.064	.	voice
.	.	.	.	8b-	Pret-	.	.	.	.
.	.	.	.	8g	-ty	.	.	.	.
.	.	.	.	[8b-	la	.	.	.	.
=40	=40	=40	=40	=40	=40	=40	=40	=40	=40
4v7	G:min7	4r	.	4b-]	_	.	78.044	.	voice
2.iv7	F:min7	8r	.	4g	dy!	.	78.534	.	voice
.	.	8c	You	.	.	.	.	.	.
.	.	4e-	brought	2r	.	.	.	.	.
.	.	8c	me	.	.	.	.	.	.
.	.	8g	in	.	.	.	.	.	.
=41	=41	=41	=41	=41	=41	=41	=41	=41	=41
4i7	C:min7	8r	.	1r	.	.	80.004	.	voice
.	.	8B-	from	.	.	.	.	.	.
4-VII	B-:maj	8c	out	.	.	.	80.494	.	voice
.	.	8B-	the	.	.	.	.	.	.
2-VI7	A-:maj7	4c	rain.	.	.	G	80.984	.	voice
.	.	4r	.	.	.	.	.	.	.
=42	=42	=42	=42	=42	=42	=42	=42	=42	=42
4v7	G:min7	2r	.	2r	.	.	81.964	.	voice
2iv7	F:min7	.	.	.	.	.	82.454	.	voice
.	.	4r	.	4f	Yeah!	.	.	.	.
4V7b	G:7/3	8r	.	4e-	_	.	83.434	.	voice
.	.	8c	And	.	.	.	.	.	.
=43	=43	=43	=43	=43	=43	=43	=43	=43	=43
4i7	C:min7	8g	may-	1r	.	(A	83.924	newline	voice
.	.	8g	-be,	.	.	a)	.	.	.
4-VII	B-:maj	8f	_	.	.	.	84.42	.	voice
.	.	8e-	_	.	.	.	.	.	.
2-VI7	A-:maj7	2r	.	.	.	.	84.915	.	voice
=44	=44	=44	=44	=44	=44	=44	=44	=44	=44
4v7	G:min7	4r	.	1r	.	.	85.907	.	voice
2.iv7	F:min7	8r	.	.	.	.	86.402	.	voice
.	.	8c	my	.	.	.	.	.	.
.	.	4e-	life	.	.	.	.	.	.
.	.	8c	will	.	.	.	.	.	.
.	.	[8g	ne	.	.	.	.	.	.
=45	=45	=45	=45	=45	=45	=45	=45	=45	=45
4-VI7	A-:maj7	8g]	_	1r	.	.	87.889	.	voice
.	.	8B-	ver	.	.	.	.	.	.
4v7	G:min7	8c	be	.	.	.	88.385	.	voice
.	.	8B-	the	.	.	.	.	.	.
2iv7	F:min7	4c	same.	.	.	G	88.88	.	voice
.	.	4r	.	.	.	.	.	.	.
=46	=46	=46	=46	=46	=46	=46	=46	=46	=46
4IVe	F:maj/2	1r	.	1r	.	.	89.872	.	voice
2.iv7	F:min7	.	.	.	.	.	90.367	.	voice
=47	=47	=47	=47	=47	=47	=47	=47	=47	=47
1iv7	F:min7	1r	.	1r	.	.	91.854	.	voice
=48	=48	=48	=48	=48	=48	=48	=48	=48	=48
*>Letter>B	*>Letter>B	*>Letter>B	*>Letter>B	*>Letter>B	*>Letter>B	*>Letter>B	*>Letter>B	*>Letter>B	*>Letter>B
*>Label>Verse	*>Label>Verse	*>Label>Verse	*>Label>Verse	*>Label>Verse	*>Label>Verse	*>Label>Verse	*>Label>Verse	*>Label>Verse	*>Label>Verse
4i7	C:min7	4r	.	1r	.	.	93.837	newline	voice
2.-VII	B-:maj	4g	Once	.	.	.	94.338	.	voice
.	.	4g	I	.	.	.	.	.	.
.	.	8g	was	.	.	.	.	.	.
.	.	8g	filled	.	.	.	.	.	.
=49	=49	=49	=49	=49	=49	=49	=49	=49	=49
4iv7	F:min7	8f	_	1r	.	.	95.84	.	voice
.	.	8e-	with	.	.	.	.	.	.
2.v7	G:min7	8e-	des-	.	.	(H	96.341	.	voice
.	.	8c	-per-	.	.	.	.	.	.
.	.	4f	-ra-	.	.	.	.	.	.
.	.	8e-	-tion,	.	.	h)	.	.	.
.	.	8c	_	.	.	.	.	.	.
=50	=50	=50	=50	=50	=50	=50	=50	=50	=50
4i7	C:min7	8r	.	1r	.	.	97.844	.	voice
.	.	8c	a	.	.	.	.	.	.
2.-VII	B-:maj	8g	so-	.	.	.	98.345	.	voice
.	.	8g	-li-	.	.	.	.	.	.
.	.	4e-	-ta-	.	.	.	.	.	.
.	.	8c	-ry	.	.	.	.	.	.
.	.	8c	man	.	.	I	.	.	.
=51	=51	=51	=51	=51	=51	=51	=51	=51	=51
4iv7	F:min7	16d	_	1r	.	.	99.848	.	voice
.	.	16c	_	.	.	.	.	.	.
.	.	[8B-	_	.	.	.	.	.	.
2.v7	G:min7	8B-]	_	.	.	.	100.349	.	voice
.	.	8c	_	.	.	.	.	.	.
.	.	2r	.	.	.	.	.	.	.
=52	=52	=52	=52	=52	=52	=52	=52	=52	=52
4i7	C:min7	4r	.	1r	.	.	101.852	newline	voice
2.-VII	B-:maj	4g	You	.	.	.	102.346	.	voice
.	.	4g	gave	.	.	.	.	.	.
.	.	8g	me	.	.	.	.	.	.
.	.	16g	hope	.	.	.	.	.	.
.	.	[16f	_	.	.	.	.	.	.
=53	=53	=53	=53	=53	=53	=53	=53	=53	=53
4iv7	F:min7	8f]	_	1r	.	.	103.828	.	voice
.	.	8e-	and	.	.	.	.	.	.
2.v7	G:min7	8e-	in-	.	.	(H	104.322	.	voice
.	.	8c	-spi-	.	.	.	.	.	.
.	.	4f	-ra-	.	.	.	.	.	.
.	.	16e-	-tion,	.	.	h)	.	.	.
.	.	8.c	_	.	.	.	.	.	.
=54	=54	=54	=54	=54	=54	=54	=54	=54	=54
4i7	C:min7	8r	.	1r	.	.	105.804	.	voice
.	.	8g	like	.	.	.	.	.	.
2.-VII	B-:maj	8g	on-	.	.	.	106.298	.	voice
.	.	8g	-ly	.	.	.	.	.	.
.	.	8e-	true	.	.	.	.	.	.
.	.	8c	love	.	.	.	.	.	.
.	.	8r	.	.	.	.	.	.	.
.	.	[8f	can!	.	.	I	.	.	.
=55	=55	=55	=55	=55	=55	=55	=55	=55	=55
4iv7	F:min7	4.f]	_	1r	.	.	107.78	.	voice
4v7	G:min7	.	.	.	.	.	108.274	.	voice
.	.	8g	_	.	.	.	.	.	.
4-III	E-:maj	2r	.	.	.	.	108.768	.	voice
4IV	F:maj	.	.	.	.	.	109.262	.	voice
=56	=56	=56	=56	=56	=56	=56	=56	=56	=56
4i7	C:min7	4r	.	1r	.	.	109.756	newline	voice
2.-VII	B-:maj	4g 4b-	Now	.	.	.	110.253	.	voice
.	.	4g 4b-	I	.	.	.	.	.	.
.	.	8g 8b-	be-	.	.	.	.	.	.
.	.	8g [8b-	-lieve	.	.	.	.	.	.
=57	=57	=57	=57	=57	=57	=57	=57	=57	=57
4iv7	F:min7	8f 8b-]	_	1r	.	.	111.744	.	voice
.	.	8e- 8g	in	.	.	.	.	.	.
2.v7	G:min7	8e- 8g	what	.	.	.	112.241	.	voice
.	.	8c 8e-	you're	.	.	.	.	.	.
.	.	4f 4a-	sa-	.	.	(J	.	.	.
.	.	8f [8g	-yin	.	.	j)	.	.	.
.	.	8e- 8g]	',	.	.	.	.	.	.
=58	=58	=58	=58	=58	=58	=58	=58	=58	=58
4i7	C:min7	4r	.	1r	.	.	113.732	.	voice
2.-VII	B-:maj	8g	I'm	.	.	.	114.229	.	voice
.	.	8b-	ten	.	.	.	.	.	.
.	.	8r	.	.	.	.	.	.	.
.	.	8a-	feet	.	.	.	.	.	.
.	.	8g-	_	.	.	.	.	.	.
.	.	16g	tall	.	.	K	.	.	.
.	.	16f	_	.	.	.	.	.	.
=59	=59	=59	=59	=59	=59	=59	=59	=59	=59
4iv7	F:min7	4e-	_	1r	.	.	115.72	.	voice
2.v7	G:min7	8c	_	.	.	.	116.217	.	voice
.	.	8r	.	.	.	.	.	.	.
.	.	2r	.	.	.	.	.	.	.
=60	=60	=60	=60	=60	=60	=60	=60	=60	=60
4i7	C:min7	4r	.	1r	.	.	117.708	newline	voice
2.-VII	B-:maj	8g	This	.	.	.	118.205	.	voice
.	.	8a-	_	.	.	.	.	.	.
.	.	8f#q	_	.	.	.	.	.	.
.	.	4g	love	.	.	.	.	.	.
.	.	8f	don't	.	.	.	.	.	.
.	.	[8e-	need	.	.	.	.	.	.
=61	=61	=61	=61	=61	=61	=61	=61	=61	=61
4iv7	F:min7	8e-]	_	1r	.	.	119.698	.	voice
.	.	8c	no	.	.	.	.	.	.
2.v7	G:min7	8e-	ex-	.	.	.	120.196	.	voice
.	.	[8f	-pla	.	.	(J	.	.	.
.	.	8f]	_	.	.	.	.	.	.
.	.	8g	nin',	.	.	j)	.	.	.
.	.	8f	_	.	.	.	.	.	.
.	.	8r	.	.	.	.	.	.	.
=62	=62	=62	=62	=62	=62	=62	=62	=62	=62
4-VI7	A-:maj7	4r	.	1r	.	.	121.688	.	voice
4v7	G:min7	4g	We've	.	.	.	122.186	.	voice
2iv7	F:min7	8e-	got	.	.	.	122.683	.	voice
.	.	8c	it	.	.	.	.	.	.
.	.	8r	.	.	.	.	.	.	.
.	.	8B-q	_	.	.	.	.	.	.
.	.	[8c	all!	.	.	K	.	.	.
=63	=63	=63	=63	=63	=63	=63	=63	=63	=63
4IVe	F:maj/2	8c]	_	1r	.	.	123.678	.	voice
.	.	8e-	_	.	.	.	.	.	.
2.iv7	F:min7	8c	_	.	.	.	124.176	.	voice
.	.	[8e-	_	.	.	.	.	.	.
.	.	4e-]	_	.	.	.	.	.	.
.	.	8f	_	.	.	.	.	.	.
.	.	8e-	_	.	.	.	.	.	.
=64	=64	=64	=64	=64	=64	=64	=64	=64	=64
*>Letter>A	*>Letter>A	*>Letter>A	*>Letter>A	*>Letter>A	*>Letter>A	*>Letter>A	*>Letter>A	*>Letter>A	*>Letter>A
*>Label>Chorus	*>Label>Chorus	*>Label>Chorus	*>Label>Chorus	*>Label>Chorus	*>Label>Chorus	*>Label>Chorus	*>Label>Chorus	*>Label>Chorus	*>Label>Chorus
4i7	C:min7	8g	Lady!	8g	La-	(A	125.668	newline	voice
.	.	8g	_	8g	-dy,	a)	.	.	.
4-VII	B-:maj	4f#	_	4r	.	.	126.163	.	voice
2-VI7	A-:maj7	2r	.	2r	.	.	126.657	.	voice
=65	=65	=65	=65	=65	=65	=65	=65	=65	=65
4v7	G:min7	1r	.	4r	.	.	127.646	.	voice
2.iv7	F:min7	.	.	8r	.	.	128.14	.	voice
.	.	.	.	8c	you	.	.	.	.
.	.	.	.	4e-	bring	.	.	.	.
.	.	.	.	8c	me	.	.	.	.
.	.	.	.	8g	up	.	.	.	.
=66	=66	=66	=66	=66	=66	=66	=66	=66	=66
4i7	C:min7	2r	.	8r	.	.	129.624	.	voice
.	.	.	.	8B-	when	.	.	.	.
4-VII	B-:maj	.	.	8c	I	.	130.118	.	voice
.	.	.	.	8B-	am	(b	.	.	.
2-VI7	A-:maj7	4r	.	4c	down.	B)	130.613	.	voice
.	.	8r	.	4r	.	.	.	.	.
.	.	8g	Up,	.	.	.	.	.	.
=67	=67	=67	=67	=67	=67	=67	=67	=67	=67
4v7	G:min7	8r	.	2r	.	.	131.602	.	voice
.	.	8c	when	.	.	.	.	.	.
2iv7	F:min7	8c	I	.	.	.	132.096	.	voice
.	.	8B-	am	.	.	.	.	.	.
.	.	16c	down!	4r	.	.	.	.	.
.	.	16B-	_	.	.	.	.	.	.
.	.	16c	_	.	.	.	.	.	.
.	.	[16B-	_	.	.	.	.	.	.
4V7b	G:7/3	8B-]	_	8r	.	.	133.085	.	voice
.	.	8c	_	8c	And	.	.	.	.
=68	=68	=68	=68	=68	=68	=68	=68	=68	=68
4i7	C:min7	2r	.	8g	may-	.	133.58	newline	voice
.	.	.	.	8g	-be,	.	.	.	.
4-VII	B-:maj	.	.	16f	_	.	133.977	.	voice
.	.	.	.	16e-	_	.	.	.	.
.	.	.	.	8r	.	.	.	.	.
2-VI7	A-:maj7	8a-	May	2r	.	(A	134.374	.	voice
.	.	8g	_	.	.	.	.	.	.
.	.	8fq	_	.	.	.	.	.	.
.	.	8g	_	.	.	.	.	.	.
.	.	8f	be!	.	.	a)	.	.	.
=69	=69	=69	=69	=69	=69	=69	=69	=69	=69
*	*	*	*	*clefF4	*	*	*	*	*
4v7	G:min7	8.e-	_	4r	.	.	135.169	.	voice
.	.	16c	_	.	.	.	.	.	.
2.iv7	F:min7	4r	.	8r	.	.	135.566	.	voice
.	.	.	.	8c	you're	.	.	.	.
.	.	2r	.	4e-	gon-	.	.	.	.
.	.	.	.	8c	-na	.	.	.	.
.	.	.	.	[8g	change	.	.	.	.
=70	=70	=70	=70	=70	=70	=70	=70	=70	=70
4-VI7	A-:maj7	1r	.	8g]	_	.	136.757	.	voice
.	.	.	.	8c	my	.	.	.	.
4v7	G:min7	.	.	8e-	life	.	137.155	.	voice
.	.	.	.	8e-	a-	(b	.	.	.
2iv7	F:min7	.	.	8c	-round	B)	137.552	.	voice
.	.	.	.	16B-	_	.	.	.	.
.	.	.	.	16G	_	.	.	.	.
.	.	.	.	8G	_	.	.	.	.
.	.	.	.	16F	_	.	.	.	.
.	.	.	.	16E-	_	.	.	.	.
=71	=71	=71	=71	=71	=71	=71	=71	=71	=71
4IVe	F:maj/2	1r	.	16F	_	.	138.346	.	voice
.	.	.	.	8.E-	_	.	.	.	.
2.iv7	F:min7	.	.	[4E-	_	.	138.743	.	voice
.	.	.	.	4.E-]	.	.	.	.	.
.	.	.	.	8r	.	.	.	.	.
=72	=72	=72	=72	=72	=72	=72	=72	=72	=72
*>Letter>D	*>Letter>D	*>Letter>D	*>Letter>D	*>Letter>D	*>Letter>D	*>Letter>D	*>Letter>D	*>Letter>D	*>Letter>D
*>Label>Bridge	*>Label>Bridge	*>Label>Bridge	*>Label>Bridge	*>Label>Bridge	*>Label>Bridge	*>Label>Bridge	*>Label>Bridge	*>Label>Bridge	*>Label>Bridge
1-VI7	A-:maj7	4r	.	1r	.	.	141.524	newline	voice
.	.	4c	Na	.	.	.	.	.	.
.	.	4d	na	.	.	.	.	.	.
.	.	4e-	na	.	.	.	.	.	.
=73	=73	=73	=73	=73	=73	=73	=73	=73	=73
.	.	8c#q	_	.	.	.	.	.	.
1-VIId	B-:maj/b7	4d	na	1r	.	.	143.512	.	voice
.	.	8c	na	.	.	.	.	.	.
.	.	8B-	_	.	.	.	.	.	.
.	.	2B-	na...	.	.	.	.	.	.
=74	=74	=74	=74	=74	=74	=74	=74	=74	=74
1-viom7	A-:hdim7	4r	.	1r	.	.	145.501	.	voice
.	.	4B	na	.	.	.	.	.	.
.	.	4c	na	.	.	.	.	.	.
.	.	4d	na	.	.	.	.	.	.
=75	=75	=75	=75	=75	=75	=75	=75	=75	=75
.	.	8dq	_	.	.	.	.	.	.
1i7	C:min7	4e-	na	1r	.	.	147.489	.	voice
.	.	8d	na	.	.	.	.	.	.
.	.	8c	_	.	.	.	.	.	.
.	.	2c	na...	.	.	.	.	.	.
=76	=76	=76	=76	=76	=76	=76	=76	=76	=76
1-VI7	A-:maj7	4r	.	1r	.	.	149.478	newline	voice
.	.	4c	na	.	.	.	.	.	.
.	.	4d	na	.	.	.	.	.	.
.	.	4e-	na	.	.	.	.	.	.
=77	=77	=77	=77	=77	=77	=77	=77	=77	=77
.	.	8e-q	_	.	.	.	.	.	.
1-VIId	B-:maj/b7	4f	na	1r	.	.	151.463	.	voice
.	.	8c#q	_	.	.	.	.	.	.
.	.	4d	na	.	.	.	.	.	.
.	.	8c	na	.	.	.	.	.	.
.	.	8B-	_	.	.	.	.	.	.
.	.	4B-	na...	.	.	.	.	.	.
=78	=78	=78	=78	=78	=78	=78	=78	=78	=78
1-viom7	A-:hdim7	4r	.	1r	.	.	153.449	.	voice
.	.	4B	na	.	.	.	.	.	.
.	.	4c	na	.	.	.	.	.	.
.	.	4d	na	.	.	.	.	.	.
=79	=79	=79	=79	=79	=79	=79	=79	=79	=79
.	.	8dq	_	.	.	.	.	.	.
1i7	C:min7	4e-	na	1r	.	.	155.434	.	voice
.	.	8d	na	.	.	.	.	.	.
.	.	8c	_	.	.	.	.	.	.
.	.	2c	na...	.	.	.	.	.	.
=80	=80	=80	=80	=80	=80	=80	=80	=80	=80
1-VI7	A-:maj7	1r	.	4r	.	.	157.42	newline	voice
.	.	.	.	4c	na	.	.	.	.
.	.	.	.	4d	na	.	.	.	.
.	.	.	.	4e-	na	.	.	.	.
=81	=81	=81	=81	=81	=81	=81	=81	=81	=81
.	.	.	.	8c#q	_	.	.	.	.
1-VIId	B-:maj/b7	1r	.	4d	na	.	159.386	.	voice
.	.	.	.	8c	na	.	.	.	.
.	.	.	.	8B-	_	.	.	.	.
.	.	.	.	2B-	na...	.	.	.	.
=82	=82	=82	=82	=82	=82	=82	=82	=82	=82
1-viom7	A-:hdim7	1r	.	4r	.	.	161.352	.	voice
.	.	.	.	4B	na	.	.	.	.
.	.	.	.	4c	na	.	.	.	.
.	.	.	.	4d	na	.	.	.	.
=83	=83	=83	=83	=83	=83	=83	=83	=83	=83
*	*	*	*	*clefG2	*	*	*	*	*
.	.	.	.	8dq 8fq 8b-q	_	.	.	.	.
1i7	C:min7	1r	.	4e- 4g 4cc	la	.	163.318	.	voice
.	.	.	.	8d 8f 8b-	la	.	.	.	.
.	.	.	.	8c 8e- 8g	_	.	.	.	.
.	.	.	.	4c 4e- 4g	la	.	.	.	.
.	.	.	.	8d 8f 8b-	la	.	.	.	.
.	.	.	.	8e- 8g 8cc	_	.	.	.	.
=84	=84	=84	=84	=84	=84	=84	=84	=84	=84
1iv7	F:min7	1r	.	1e- 1g 1cc	la...	.	165.284	newline	voice
=85	=85	=85	=85	=85	=85	=85	=85	=85	=85
1-VIId	B-:maj/b7	[2.g	Whoa,	1r	.	.	167.313	.	voice
.	.	8g]	_	.	.	.	.	.	.
.	.	8f	_	.	.	.	.	.	.
=86	=86	=86	=86	=86	=86	=86	=86	=86	=86
*>Letter>A	*>Letter>A	*>Letter>A	*>Letter>A	*>Letter>A	*>Letter>A	*>Letter>A	*>Letter>A	*>Letter>A	*>Letter>A
*>Label>Chorus	*>Label>Chorus	*>Label>Chorus	*>Label>Chorus	*>Label>Chorus	*>Label>Chorus	*>Label>Chorus	*>Label>Chorus	*>Label>Chorus	*>Label>Chorus
4i7	C:min7	8g	la-	8g	La-	(A	169.343	newline	voice
.	.	8g	-dy!	8g	-dy!	a)	.	.	.
4-VII	B-:maj	8f#	_	4r	.	.	169.837	.	voice
.	.	8r	.	.	.	.	.	.	.
2-VI7	A-:maj7	4e-	Mm,	2r	.	.	170.331	.	voice
.	.	8f	ah!	.	.	.	.	.	.
.	.	8r	.	.	.	.	.	.	.
=87	=87	=87	=87	=87	=87	=87	=87	=87	=87
4v7	G:min7	1r	.	4r	.	.	171.32	.	voice
2.iv7	F:min7	.	.	8r	.	.	171.814	.	voice
.	.	.	.	8c	You	.	.	.	.
.	.	.	.	4e-	bring	.	.	.	.
.	.	.	.	8c	me	.	.	.	.
.	.	.	.	8g	up	.	.	.	.
=88	=88	=88	=88	=88	=88	=88	=88	=88	=88
4i7	C:min7	2r	.	8r	.	.	173.297	.	voice
.	.	.	.	8B-	when	.	.	.	.
4-VII	B-:maj	.	.	8c	I	.	173.792	.	voice
.	.	.	.	8B-	am	(b	.	.	.
2-VI7	A-:maj7	4r	.	4c	down!	B)	174.286	.	voice
.	.	8r	.	4r	.	.	.	.	.
.	.	8g	Up	.	.	.	.	.	.
=89	=89	=89	=89	=89	=89	=89	=89	=89	=89
4v7	G:min7	8r	.	2r	.	.	175.275	.	voice
.	.	8c	when	.	.	.	.	.	.
2iv7	F:min7	8c	I	.	.	.	175.769	.	voice
.	.	8B-	am	.	.	(b	.	.	.
.	.	16c	down!	4r	.	B)	.	.	.
.	.	16B-	_	.	.	.	.	.	.
.	.	16c	_	.	.	.	.	.	.
.	.	[16B-	_	.	.	.	.	.	.
4V7b	G:7/3	8B-]	_	8r	.	.	176.758	.	voice
.	.	8c	_	8c	And	.	.	.	.
=90	=90	=90	=90	=90	=90	=90	=90	=90	=90
4i7	C:min7	2r	.	8g	may-	(A	177.252	newline	voice
.	.	.	.	8g	-be,	a)	.	.	.
4-VII	B-:maj	.	.	16f	_	.	177.747	.	voice
.	.	.	.	16e-	_	.	.	.	.
.	.	.	.	8r	.	.	.	.	.
2-VI7	A-:maj7	4.f	_	2r	.	.	178.243	.	voice
.	.	[8e-	_	.	.	.	.	.	.
=91	=91	=91	=91	=91	=91	=91	=91	=91	=91
4v7	G:min7	8e-]	_	4r	.	.	179.234	.	voice
.	.	8c	_	.	.	.	.	.	.
2.iv7	F:min7	4r	.	8r	.	.	179.729	.	voice
.	.	.	.	8c	you're	.	.	.	.
.	.	2r	.	4e-	gon-	.	.	.	.
.	.	.	.	8c	-na	.	.	.	.
.	.	.	.	[8g	change	.	.	.	.
=92	=92	=92	=92	=92	=92	=92	=92	=92	=92
4i7	C:min7	2r	.	8g]	_	.	181.216	.	voice
.	.	.	.	8B-	my	.	.	.	.
4-VII	B-:maj	.	.	8c	life	.	181.712	.	voice
.	.	.	.	8B-	a-	(b	.	.	.
2-VI7	A-:maj7	4f	_	4c	-round!	B)	182.207	.	voice
.	.	8e-	_	4r	.	.	.	.	.
.	.	8r	.	.	.	.	.	.	.
=93	=93	=93	=93	=93	=93	=93	=93	=93	=93
4v7	G:min7	4f	_	2r	.	.	183.198	.	voice
2iv7	F:min7	8e-	_	.	.	.	183.694	.	voice
.	.	8r	.	.	.	.	.	.	.
.	.	4f	_	8r	.	.	.	.	.
.	.	.	.	4.b- 4.ee-	Ooh!	.	.	.	.
4V7b	G:7/3	8e-	_	.	.	.	184.685	.	voice
.	.	8r	.	.	.	.	.	.	.
=94	=94	=94	=94	=94	=94	=94	=94	=94	=94
4i7	C:min7	8g	La-	8g 8cc	La-	(A	185.18	newline	voice
.	.	8g	-dy!	8g 8cc	-dy!	a)	.	.	.
2.-VII	B-:maj	4f#	_	4r	.	.	185.679	.	voice
.	.	2r	.	2r	.	.	.	.	.
=95	=95	=95	=95	=95	=95	=95	=95	=95	=95
4iv7	F:min7	1r	.	1r	.	.	187.174	.	voice
2.v7	G:min7	.	.	.	.	.	187.673	.	voice
=96	=96	=96	=96	=96	=96	=96	=96	=96	=96
4i7	C:min7	1r	.	1r	.	.	189.168	.	voice
2.-VII	B-:maj	.	.	.	.	.	189.667	.	voice
=97	=97	=97	=97	=97	=97	=97	=97	=97	=97
4iv7	F:min7	1r	.	1r	.	.	191.162	.	voice
2.v7	G:min7	.	.	.	.	.	191.661	.	voice
=98	=98	=98	=98	=98	=98	=98	=98	=98	=98
*>Letter>A	*>Letter>A	*>Letter>A	*>Letter>A	*>Letter>A	*>Letter>A	*>Letter>A	*>Letter>A	*>Letter>A	*>Letter>A
*>Label>Outro	*>Label>Outro	*>Label>Outro	*>Label>Outro	*>Label>Outro	*>Label>Outro	*>Label>Outro	*>Label>Outro	*>Label>Outro	*>Label>Outro
4i7	C:min7	1r	.	1r	.	.	193.157	newline	synth
2.-VII	B-:maj	.	.	.	.	.	193.647	.	synth
=99	=99	=99	=99	=99	=99	=99	=99	=99	=99
4iv7	F:min7	1r	.	1r	.	.	195.119	.	synth
2.v7	G:min7	.	.	.	.	.	195.609	.	synth
=100	=100	=100	=100	=100	=100	=100	=100	=100	=100
4i7	C:min7	1r	.	1r	.	.	197.081	.	synth
2.-VII	B-:maj	.	.	.	.	.	197.571	.	synth
=101	=101	=101	=101	=101	=101	=101	=101	=101	=101
4iv7	F:min7	1r	.	2r	.	.	199.043	.	synth
4v7	G:min7	.	.	.	.	.	199.533	.	synth
4-III	E-:maj	.	.	8r	.	.	200.024	.	synth
.	.	.	.	4.b- 4.ee-	Ooh!	.	.	.	.
4IV	F:maj	.	.	.	.	.	200.514	.	synth
=102	=102	=102	=102	=102	=102	=102	=102	=102	=102
4i7	C:min7	1r	.	8g	La-	.	201.005	newline	synth
.	.	.	.	8g	-dy!	.	.	.	.
2.-VII	B-:maj	.	.	4r	.	.	201.502	.	synth
.	.	.	.	2r	.	.	.	.	.
=103	=103	=103	=103	=103	=103	=103	=103	=103	=103
4iv7	F:min7	1r	.	4r	.	.	202.993	.	synth
2.v7	G:min7	.	.	8r	.	.	203.49	.	synth
.	.	.	.	8c	You	.	.	.	.
.	.	.	.	4e-	bring	.	.	.	.
.	.	.	.	8c	me	.	.	.	.
.	.	.	.	8g	up	.	.	.	.
=104	=104	=104	=104	=104	=104	=104	=104	=104	=104
4i7	C:min7	1r	.	8r	.	.	204.981	.	synth
.	.	.	.	8B-	when	.	.	.	.
2.-VII	B-:maj	.	.	8c	I	.	205.478	.	synth
.	.	.	.	8B-	am	(b	.	.	.
.	.	.	.	4c	down.	B)	.	.	.
.	.	.	.	4r	.	.	.	.	.
=105	=105	=105	=105	=105	=105	=105	=105	=105	=105
4iv7	F:min7	1r	.	2r	.	.	206.969	.	synth
2.v7	G:min7	.	.	.	.	.	207.466	.	synth
.	.	.	.	4r	.	.	.	.	.
.	.	.	.	8r	.	.	.	.	.
.	.	.	.	8c	And	.	.	.	.
=106	=106	=106	=106	=106	=106	=106	=106	=106	=106
4i7	C:min7	1r	.	8g	may-	(A	208.957	newline	synth
.	.	.	.	8g	-be,	a)	.	.	.
2.-VII	B-:maj	.	.	16f	_	.	209.452	.	synth
.	.	.	.	16e-	_	.	.	.	.
.	.	.	.	8r	.	.	.	.	.
.	.	.	.	2r	.	.	.	.	.
=107	=107	=107	=107	=107	=107	=107	=107	=107	=107
4iv7	F:min7	1r	.	4r	.	.	210.939	.	synth
2.v7	G:min7	.	.	8r	.	.	211.434	.	synth
.	.	.	.	8c	you're	.	.	.	.
.	.	.	.	4e-	gon-	.	.	.	.
.	.	.	.	8c	-na	.	.	.	.
.	.	.	.	[8g	change	.	.	.	.
=108	=108	=108	=108	=108	=108	=108	=108	=108	=108
4i7	C:min7	1r	.	8g]	_	.	212.921	.	synth
.	.	.	.	8B-	my	.	.	.	.
2.-VII	B-:maj	.	.	8c	life	.	213.416	.	synth
.	.	.	.	8B-	a-	(b	.	.	.
.	.	.	.	4c	-round!	B)	.	.	.
.	.	.	.	4r	.	.	.	.	.
=109	=109	=109	=109	=109	=109	=109	=109	=109	=109
4iv7	F:min7	1r	.	2r	.	.	214.903	.	synth
4v7	G:min7	.	.	.	.	.	215.399	.	synth
4-III	E-:maj	.	.	8r	.	.	215.894	.	synth
.	.	.	.	4.b- 4.ee-	Ooh!	.	.	.	.
4IV	F:maj	.	.	.	.	.	216.39	.	synth
=110	=110	=110	=110	=110	=110	=110	=110	=110	=110
4i7	C:min7	1r	.	8g	La-	(A	216.885	newline	synth
.	.	.	.	8g	-dy!	a)	.	.	.
2.-VII	B-:maj	.	.	4r	.	.	217.385	.	synth
.	.	.	.	2r	.	.	.	.	.
=111	=111	=111	=111	=111	=111	=111	=111	=111	=111
4iv7	F:min7	1r	.	1r	.	.	218.883	.	synth
2.v7	G:min7	.	.	.	.	.	219.383	.	synth
=112	=112	=112	=112	=112	=112	=112	=112	=112	=112
4i7	C:min7	1r	.	1r	.	.	220.881	.	synth
2.-VII	B-:maj	.	.	.	.	.	221.38	.	synth
=113	=113	=113	=113	=113	=113	=113	=113	=113	=113
4iv7	F:min7	1r	.	1r	.	.	222.879	.	synth
2.v7	G:min7	.	.	.	.	.	223.378	.	synth
=114	=114	=114	=114	=114	=114	=114	=114	=114	=114
*>Label>>Fadeout	*>Label>>Fadeout	*>Label>>Fadeout	*>Label>>Fadeout	*>Label>>Fadeout	*>Label>>Fadeout	*>Label>>Fadeout	*>Label>>Fadeout	*>Label>>Fadeout	*>Label>>Fadeout
4i7	C:min7	1r	.	1r	.	.	224.877	newline	synth
2.-VII	B-:maj	.	.	.	.	.	225.373	.	synth
=115	=115	=115	=115	=115	=115	=115	=115	=115	=115
4iv7	F:min7	1r	.	1r	.	.	226.86	.	synth
2.v7	G:min7	.	.	.	.	.	227.355	.	synth
=116	=116	=116	=116	=116	=116	=116	=116	=116	=116
4i7	C:min7	1r	.	1r	.	.	228.843	.	synth
2.-VII	B-:maj	.	.	.	.	.	229.338	.	synth
=117	=117	=117	=117	=117	=117	=117	=117	=117	=117
4iv7	F:min7	1r	.	2r	.	.	230.825	.	synth
4v7	G:min7	.	.	.	.	.	231.321	.	synth
4-III	E-:maj	.	.	8r	.	.	231.817	.	synth
.	.	.	.	4.b- 4.ee-	Ooh!	.	.	.	.
4IV	F:maj	.	.	.	.	.	232.313	.	synth
=118	=118	=118	=118	=118	=118	=118	=118	=118	=118
4i7	C:min7	8g	La-	1r	.	(A	232.56	newline	synth
.	.	8g	-dy!	.	.	a)	.	.	.
2.-VII	B-:maj	4r	.	.	.	.	232.808	.	synth
.	.	2r	.	.	.	.	.	.	.
=119	=119	=119	=119	=119	=119	=119	=119	=119	=119
4iv7	F:min7	4r	.	1r	.	.	238.013	.	synth
2.v7	G:min7	8r	.	.	.	.	.	.	synth
.	.	8c	You	.	.	.	.	.	.
.	.	4e-	bring	.	.	.	.	.	.
.	.	8c	me	.	.	.	.	.	.
.	.	8g	up	.	.	.	.	.	.
=120	=120	=120	=120	=120	=120	=120	=120	=120	=120
4i7	C:min7	8r	.	1r	.	.	.	.	synth
.	.	8B-	when	.	.	.	.	.	.
2.-VII	B-:maj	8c	I	.	.	.	.	.	synth
.	.	8B-	am	.	.	(b	.	.	.
.	.	4c	down!	.	.	B)	.	.	.
.	.	4r	.	.	.	.	.	.	.
=121	=121	=121	=121	=121	=121	=121	=121	=121	=121
4iv7	F:min7	1r	.	1r	.	.	.	.	synth
4v7	G:min7	.	.	.	.	.	.	.	synth
4-III	E-:maj	.	.	.	.	.	.	.	synth
4IV	F:maj	.	.	.	.	.	.	.	synth
1r;	N	r;	.	r;	.	.	238.261	.	r
1r;	N	r;	.	r;	.	.	241.307	.	r
*-	*-	*-	*-	*-	*-	*-	*-	*-	*-
!!!BillboardChartDate: 1981/07/11
!!!BillboardPeak: 8
!!!BillboardWeeksOnChart: 22
!!!COC: Commodores
!!!ENC: Nathaniel Condit-Schultz
!!!EST: Awating manual error checking and editing.
!!!OTL: Lady (You Bring Me Up)
!!!RDF**harte: Chris Harte's syntax, used by MIREX
!!!RDF**harmony: **recip + pitch class of root + harmonic quality
!!!RDF**leadinstrument: original McGill primary instrumentation annotation
!!!RDF**phrase: newline = linebreak in original McGill transcription
!!!RDF**timestamp: McGill audio timestamp in seconds
!!!RDT: 2017/01/12/
!!!SampleActualRank: 35
!!!SampleID#: 0716
!!!SampleTargetRank: 36
!!!MBID: cc4d1b5e-26fc-4870-a3da-393719dad43a
